modules/hawcons-filled/icons/icon-15-two-fingers-resize-out.svg

<?xml version="1.0" encoding="UTF-8" standalone="no"?>
<svg width="32px" height="32px" viewBox="0 0 32 32" version="1.1" xmlns="http://www.w3.org/2000/svg" xmlns:xlink="http://www.w3.org/1999/xlink" xmlns:sketch="http://www.bohemiancoding.com/sketch/ns">
    <!-- Generator: Sketch 3.0.3 (7891) - http://www.bohemiancoding.com/sketch -->
    <title>icon 15 two fingers resize out</title>
    <desc>Created with Sketch.</desc>
    <defs></defs>
    <g id="Page-1" stroke="none" stroke-width="1" fill="none" fill-rule="evenodd" sketch:type="MSPage">
        <g id="icon-15-two-fingers-resize-out" sketch:type="MSArtboardGroup" fill="#929292">
            <path d="M3,11.3589836 L7.1794918,7.1794918 L7.88659858,7.88659858 L3.77319715,12 L3.77319715,12 L7,12 L7,13 L2.5,13 L2,13 L2,8 L3,8 L3,11.3589836 L3,11.3589836 L3,11.3589836 Z M13,2.64101641 L8.8205082,6.8205082 L8.11340142,6.11340142 L12.2268028,2 L12.2268028,2 L9,2 L9,1 L13.5,1 L14,1 L14,6 L13,6 L13,2.64101641 L13,2.64101641 L13,2.64101641 Z M23,6.49089813 C23,5.66749783 22.3342028,5 21.5,5 C20.6715729,5 20,5.67622006 20,6.49089813 L20,15.4325233 L20,18 L19,18 L19,15.5 L19,8.50863659 C19,7.67543961 18.3342028,7 17.5,7 C16.6715729,7 16,7.66642015 16,8.50863659 L16,18.7983451 C13.9416004,16.5979243 11.2316298,14.1791206 10.1210327,15.2957153 C9.03386293,16.3887562 11.835362,19.4007216 15.7473755,25.9830936 C17.5099958,28.9488875 19.7402849,30.9995418 23.5,31 C27.6421358,31 31,27.6421358 31,23.5 L31,20.2468012 L31,15.5063976 C31,14.6744372 30.3342028,14 29.5,14 C28.6715729,14 28,14.6764628 28,15.5063976 L28,17.7497253 L28,18 L27,18 L27,15.6781559 L27,14.4912653 C27,13.6676622 26.3342028,13 25.5,13 C24.6715729,13 24,13.6625444 24,14.4912653 L24,15.5082011 L24,17 L23,17 L23,15.5082011 L23,6.49089813 L23,6.49089813 Z" id="two-fingers-resize-out" sketch:type="MSShapeGroup"></path>
        </g>
    </g>
</svg>

<svg width="32" height="32" viewBox="0 0 32 32" xmlns="http://www.w3.org/2000/svg"><path d="M3 11.359l4.18-4.18.707.708L3.773 12H7v1H2V8h1v3.359zm10-8.718l-4.18 4.18-.707-.708L12.227 2H9V1h5v5h-1V2.641zm10 3.85a1.501 1.501 0 0 0-3 0V18h-1V8.509a1.5 1.5 0 1 0-3 0v10.29c-2.058-2.201-4.768-4.62-5.879-3.503-1.087 1.093 1.714 4.105 5.626 10.687C17.51 28.95 19.74 31 23.5 31a7.5 7.5 0 0 0 7.5-7.5v-7.993a1.5 1.5 0 1 0-3 0V18h-1V14.491c0-.823-.666-1.491-1.5-1.491-.828 0-1.5.663-1.5 1.491V17h-1V6.491z" fill="#929292" fill-rule="evenodd"/></svg>
